packages/core/src/svgs/factr.svg

<svg width="24" height="24" viewBox="0 0 24 24" fill="none" xmlns="http://www.w3.org/2000/svg">
<g clip-path="url(#clip0_31_10183)">
<path d="M0 0H24V24H0V0Z" fill="#F0F3FA"/>
<path d="M17.6357 5.57141L12.6643 5.99998C12.5373 6.01111 12.4154 6.05535 12.3109 6.1283C12.2064 6.20125 12.1228 6.30035 12.0685 6.4157C12.0143 6.53187 11.9913 6.66017 12.0019 6.78794C12.0124 6.91571 12.056 7.03853 12.1285 7.14427L14.9657 11.2671C15.0391 11.3706 15.1383 11.4531 15.2534 11.5065C15.3685 11.5599 15.4956 11.5823 15.622 11.5715C15.7485 11.5606 15.8699 11.517 15.9743 11.4448C16.0786 11.3726 16.1623 11.2745 16.2171 11.16L18.3557 6.62998C18.398 6.54277 18.4227 6.44806 18.4284 6.35128C18.434 6.25451 18.4206 6.15757 18.3887 6.066C18.3569 5.97444 18.3073 5.89006 18.2428 5.8177C18.1783 5.74533 18.1001 5.68639 18.0128 5.64427C17.8955 5.58816 17.7653 5.56448 17.6357 5.5757V5.57141ZM5.5714 6.36427L5.99997 11.3357C6.01109 11.4627 6.05534 11.5845 6.12828 11.6891C6.20123 11.7936 6.30033 11.8772 6.41568 11.9314C6.5316 11.9858 6.65963 12.0093 6.78731 11.9995C6.91499 11.9898 7.03796 11.9471 7.14425 11.8757L11.2671 9.02998C11.3686 8.95615 11.4492 8.85736 11.5013 8.74319C11.5534 8.62902 11.5751 8.50333 11.5643 8.37832C11.5535 8.2533 11.5106 8.13318 11.4398 8.02961C11.369 7.92603 11.2726 7.84251 11.16 7.78713L6.62997 5.64427C6.54275 5.60195 6.44804 5.57724 6.35127 5.57157C6.25449 5.5659 6.15755 5.57938 6.06599 5.61123C5.97443 5.64307 5.89005 5.69267 5.81768 5.75717C5.74531 5.82167 5.68638 5.89982 5.64425 5.98713C5.58814 6.10447 5.56446 6.23469 5.57568 6.36427H5.5714ZM6.35997 18.4286L11.3314 18.0128C11.4596 18.002 11.5826 17.9575 11.688 17.8837C11.7934 17.8099 11.8774 17.7096 11.9314 17.5928C11.986 17.476 12.0092 17.347 11.9986 17.2184C11.9881 17.0899 11.9443 16.9664 11.8714 16.86L9.02568 12.7328C8.91456 12.5784 8.74744 12.4736 8.56004 12.4407C8.37264 12.4079 8.17983 12.4497 8.02282 12.5571C7.91997 12.63 7.83425 12.7286 7.77854 12.84L5.63997 17.3828C5.55778 17.5591 5.54859 17.7608 5.61442 17.9438C5.68025 18.1268 5.81575 18.2764 5.9914 18.36C6.10711 18.4114 6.23568 18.4371 6.35997 18.4243V18.4286ZM18.4285 17.6486L18.0085 12.6686C18.0004 12.5731 17.9736 12.4802 17.9296 12.3952C17.8856 12.3102 17.8252 12.2346 17.752 12.1729C17.6787 12.1112 17.594 12.0646 17.5028 12.0356C17.4115 12.0067 17.3154 11.996 17.22 12.0043C17.0914 12.0128 16.9628 12.0557 16.86 12.1328L12.7328 14.9786C12.6293 15.052 12.5468 15.1512 12.4934 15.2663C12.4401 15.3814 12.4177 15.5085 12.4285 15.6349C12.4393 15.7613 12.483 15.8828 12.5551 15.9871C12.6273 16.0915 12.7255 16.1752 12.84 16.23L17.3828 18.36C17.4984 18.4135 17.6259 18.4362 17.7529 18.4258C17.8798 18.4154 18.0019 18.3722 18.1073 18.3006C18.2126 18.2289 18.2975 18.1312 18.3539 18.0169C18.4102 17.9026 18.4359 17.7757 18.4285 17.6486Z" fill="#5A5BEB"/>
</g>
<defs>
<clipPath id="clip0_31_10183">
<rect width="24" height="24" fill="white"/>
</clipPath>
</defs>
</svg>

<svg xmlns="http://www.w3.org/2000/svg" width="24" height="24" fill="none" viewBox="0 0 24 24"><g clip-path="url(#a)"><path fill="#F0F3FA" d="M0 0h24v24H0z"/><path fill="#5A5BEB" d="M17.636 5.571 12.664 6a.73.73 0 0 0-.535 1.144l2.837 4.123a.73.73 0 0 0 1.251-.107l2.139-4.53a.74.74 0 0 0-.343-.986.73.73 0 0 0-.377-.068zM5.57 6.364 6 11.336a.73.73 0 0 0 .787.663.74.74 0 0 0 .357-.123l4.123-2.846a.728.728 0 0 0-.107-1.243L6.63 5.644a.737.737 0 0 0-.986.343.73.73 0 0 0-.068.377zM6.36 18.43l4.971-.416a.73.73 0 0 0 .6-.42.74.74 0 0 0-.06-.733l-2.845-4.127a.73.73 0 0 0-1.247.107L5.64 17.383a.737.737 0 0 0 .351.977.73.73 0 0 0 .369.064zm12.068-.78-.42-4.98a.73.73 0 0 0-.788-.665.7.7 0 0 0-.36.129l-4.127 2.846a.73.73 0 0 0 .107 1.251l4.543 2.13a.738.738 0 0 0 1.046-.711"/></g><defs><clipPath id="a"><path fill="#fff" d="M0 0h24v24H0z"/></clipPath></defs></svg>
